resources/modules/editor/src/svgs/divider.svg

<svg width="32" height="32" viewBox="0 0 32 32" fill="none" xmlns="http://www.w3.org/2000/svg">
<path d="M1.34387 12.672H30.6559C31.0399 12.672 31.3279 12.352 31.3279 12C31.3279 11.648 31.0399 11.328 30.6559 11.328H1.34387C0.959875 11.328 0.671875 11.616 0.671875 12C0.671875 12.384 0.959875 12.672 1.34387 12.672V12.672ZM11.9999 7.328H19.9999C20.2559 7.328 20.4799 7.168 20.6079 6.944C20.7359 6.72 20.6719 6.464 20.5439 6.272L16.5439 0.928001C16.2879 0.576002 15.7119 0.576002 15.4559 0.928001L11.4559 6.272C11.3279 6.464 11.2959 6.72 11.3919 6.944C11.5199 7.168 11.7439 7.328 11.9999 7.328ZM15.9999 2.432L18.6559 5.984H13.3439L15.9999 2.432V2.432ZM19.9999 24.672H11.9999C11.7439 24.672 11.5199 24.8 11.3919 25.024C11.2959 25.248 11.3279 25.536 11.4559 25.728L15.4559 31.072C15.5839 31.232 15.8079 31.328 15.9999 31.328C16.1919 31.328 16.4159 31.232 16.5439 31.072L20.5439 25.728C20.6719 25.536 20.7039 25.248 20.6079 25.024C20.4799 24.8 20.2559 24.672 19.9999 24.672ZM15.9999 29.536L13.3439 25.984H18.6559L15.9999 29.536V29.536ZM30.6559 19.328H1.34387C0.959875 19.328 0.671875 19.616 0.671875 20C0.671875 20.384 0.959875 20.672 1.34387 20.672H30.6559C31.0399 20.672 31.3279 20.352 31.3279 20C31.3279 19.648 31.0399 19.328 30.6559 19.328Z" fill="black"/>
</svg>

<!-- Generated by IcoMoon.io -->
<svg version="1.1" xmlns="http://www.w3.org/2000/svg" width="32" height="32" viewBox="0 0 32 32">
<title>divider</title>
<path d="M1.344 12.672h29.312c0.384 0 0.672-0.32 0.672-0.672s-0.288-0.672-0.672-0.672h-29.312c-0.384 0-0.672 0.288-0.672 0.672s0.288 0.672 0.672 0.672zM12 7.328h8c0.256 0 0.48-0.16 0.608-0.384s0.064-0.48-0.064-0.672l-4-5.344c-0.256-0.352-0.832-0.352-1.088 0l-4 5.344c-0.128 0.192-0.16 0.448-0.064 0.672 0.128 0.224 0.352 0.384 0.608 0.384zM16 2.432l2.656 3.552h-5.312l2.656-3.552zM20 24.672h-8c-0.256 0-0.48 0.128-0.608 0.352-0.096 0.224-0.064 0.512 0.064 0.704l4 5.344c0.128 0.16 0.352 0.256 0.544 0.256s0.416-0.096 0.544-0.256l4-5.344c0.128-0.192 0.16-0.48 0.064-0.704-0.128-0.224-0.352-0.352-0.608-0.352zM16 29.536l-2.656-3.552h5.312l-2.656 3.552zM30.656 19.328h-29.312c-0.384 0-0.672 0.288-0.672 0.672s0.288 0.672 0.672 0.672h29.312c0.384 0 0.672-0.32 0.672-0.672s-0.288-0.672-0.672-0.672z"></path>
</svg>
